!!!COM: Ravel, (Joseph) Maurice
!!!OTL: Piano Trio
!!!OMV: I: Modéré (Moderately)
!!!example: 292
!!!work: Rav-23
**kern	**kern	**dynam	**kern	**dynam	**kern	**dynam
*part3	*part3	*part3	*part2	*part2	*part1	*part1
*staff4	*staff3	*	*staff2	*	*staff1	*
*I"Piano	*	*	*I"Violoncello	*	*I"Violin	*
*I'Pno.	*	*	*I'Vc.	*	*I'Vln.	*
*clefF4	*clefG2	*	*clefF4	*	*clefG2	*
*k[]	*k[]	*	*k[]	*	*k[]	*
*C:	*C:	*	*C:	*	*C:	*
*M8/8	*M8/8	*	*M8/8	*	*M8/8	*
=1	=	=	=	=	=	=
4r	8a'L 8cc 8ee	pp	1r	.	1r	.
.	(8.a 8.cc 8.ee	.	.	.	.	.
[4e'	.	.	.	.	.	.
.	16f#Xk 16b 16dd	.	.	.	.	.
.	8.a 8.cc 8.ee	.	.	.	.	.
4e']	.	.	.	.	.	.
.	16bk 16dd 16ff#X	.	.	.	.	.
.	8cc'J) 8ee 8gg	.	.	.	.	.
(8eL	4b~ 4dd 4ff#	.	.	.	.	.
8EJ	.	.	.	.	.	.
=2	=2	=2	=2	=2	=2	=2
[4EE)	8a'L 8cc 8ee	.	1r	.	1r	.
.	(8.a 8.cc 8.ee	.	.	.	.	.
[4e'	.	.	.	.	.	.
.	16f#Xk 16b 16dd	.	.	.	.	.
.	8.a 8.cc 8.ee	.	.	.	.	.
4e']	.	.	.	.	.	.
.	16f#k 16b 16dd	.	.	.	.	.
.	8c'J) 8fn 8a	.	.	.	.	.
(8eL	4d~ 4f#X 4b	.	.	.	.	.
8EJ	.	.	.	.	.	.
=3	=3	=3	=3	=3	=3	=3
[4EE)	8fn'L 8b-X 8dd	.	1r	.	1r	.
.	(8.f 8.b- 8.dd	.	.	.	.	.
[4e'	.	.	.	.	.	.
.	16f#Xk 16bn 16ee	.	.	.	.	.
.	8.g 8.cc 8.dd	.	.	.	.	.
4e']	.	.	.	.	.	.
.	16f#k 16b 16ee	.	.	.	.	.
.	8c'J) 8fn 8a	.	.	.	.	.
(8eL	4d~ 4f#X 4b	.	.	.	.	.
8EJ	.	.	.	.	.	.
=4	=4	=4	=4	=4	=4	=4
[4EE)	8fn'L 8b-X 8dd	.	1r	.	1r	.
.	(8.f 8.b- 8.dd	.	.	.	.	.
[4e'	.	.	.	.	.	.
.	16f#Xk 16bn 16ee	.	.	.	.	.
.	8.e 8.g 8.cc	.	.	.	.	.
4e']	.	.	.	.	.	.
.	16dk 16f# 16b	.	.	.	.	.
.	8Bn'J) 8d 8g	.	.	.	.	.
(8eL	4c#X~ 4e	.	.	.	.	.
8EJ	.	.	.	.	.	.
=5	=5	=5	=5	=5	=5	=5
!!linebreak:original
[4AAA) [4AA	8cc'L 8ee 8aa 8ccc	.	8e'L	pp	8eee'L	pp
.	(8.cc 8.ee 8.aa 8.ccc	.	(8.e	.	(8.eee	.
[4E' [4e	.	.	.	.	.	.
.	16bk 16dd 16ff#X 16bbn	.	16dk)	.	16dddk)	.
.	8.cc' 8.ee 8.aa 8.ccc	.	(8.e'	.	(8.eee'	.
4E'] 4e]	.	.	.	.	.	.
.	16ddk 16ff# 16bb 16ddd	.	16f#Xk)	.	16fff#Xk)	.
.	8ee'J) 8gg 8ccc 8eee	.	(8g'J	.	(8ggg'J	.
(8EL 8e	4dd' 4ff# 4bb 4ddd	.	4f#~)	.	4fff#~)	.
8EEJ 8E	.	.	.	.	.	.
=6	=6	=6	=6	=6	=6	=6
[4AAA) [4AA	8cc'L 8ee 8aa 8ccc	.	8e'L	.	8eee'L	.
.	(8.cc 8.ee 8.aa 8.ccc	.	(8.e	.	(8.eee	.
[4E' [4e	.	.	.	.	.	.
.	16bk 16dd 16ff#X 16bb	.	16dk)	.	16dddk)	.
.	8.cc' 8.ee 8.aa 8.ccc	.	(8.e'	.	(8.eee'	.
4E'] 4e]	.	.	.	.	.	.
.	16ddk 16ff# 16bb 16ddd	.	16dk)	.	16dddk)	.
.	8fn'J) 8a 8cc 8ffn	.	(8A'J	.	(8aa'J	.
(8EL 8e	4e~ 4b 4dd 4ff#X	.	4B~)	.	4bb~)	.
8EEJ 8E	.	.	.	.	.	.
=7	=7	=7	=7	=7	=7	=7
[4EEE) [4EE	8b-X'L 8dd 8ff 8bb-X	.	8d'L	.	8ddd'L	.
.	(8.b-X 8.dd 8.gg 8.bb-	.	(8.d	.	(8.ddd	.
[4E' [4e	.	.	.	.	.	.
.	16bnk 16ee#X 16ff 16bbn	.	16ek)	.	16eeek)	.
.	8.cc' 8.dd 8.gg 8.ccc	.	(8.d'	.	(8.ddd'	.
4E'] 4e]	.	.	.	.	.	.
.	16bk 16ee# 16ff 16bb	.	16ek)	.	16eeek)	.
.	8fn'J) 8a 8cc 8ffn	.	(8A'J	.	(8aa'J	.
(8EL 8e	4f#X~ 4b 4dd 4ff#X	.	4B~)	.	4bb~)	.
8EEJ 8E	.	.	.	.	.	.
=8	=8	=8	=8	=8	=8	=8
[4EEE) [4EE	8b-X'L 8dd 8ff 8bb-X	.	8d'L	.	8ddd'L	.
.	(8.b-X 8.dd 8.gg 8.bb-	.	(8.d	.	(8.ddd	.
[4E' [4e	.	.	.	.	.	.
.	16bnk 16ee#X 16ff 16bbn	.	16ek)	.	16eeek)	.
.	8.g' 8.cc 8.ee# 8.gg	.	(8.d'	.	(8.ddd'	.
4E'] 4e]	.	.	.	.	.	.
.	16f#Xk 16b 16dd 16ff#X	.	16ek)	.	16eeek)	.
.	8d'J) 8g 8b 8dd	.	(8A'J	.	(8aa'J	.
(8EL 8e	4c#X 4e 4a 4cc#X	.	4B~)	.	4bb~)	.
8EEJ) 8E	.	.	.	.	.	.
==	==	==	==	==	==	==
*-	*-	*-	*-	*-	*-	*-
!!!CDT: 1875/03/07-1937/12/28
!!!CBL: Ciboure, France
!!!CDL: Paris, France
!!!CNT: French
!!!AGN: Instrumental; Chamber
!!!MCN:
!!!MDT: 1915/01/28
!!!MGN:
!!!MLC: Paris, France
!!!MPD: 1915
!!!MPN: Casella, Alfredo; Enesco, George; Feuillard, Louis
!!!ODT: 1914
!!!PDT: 1915
!!!excerpt-start-measure: 1
!!!excerpt-end-measure: 8
!!!excerpt-start-time: 0:00
!!!excerpt-end-time: 0:36
!!!EEV: 2020/01/17
!!!system-decoration: [(s1,s2)]{(s3,s4)}
!!!ONB: Converted from MusicXML on 2020/01/17
